Numix/16/actions/document-page-setup.svg

<svg width="16" xmlns="http://www.w3.org/2000/svg" height="16" viewBox="0 0 16 16">
<path style="fill:#f9f9f9;fill-rule:evenodd" d="M 3.0000001,0 13.000001,0 C 15,0 15,0 15,1.7777778 L 15,14.222222 C 15,16 15,16 13.000001,16 L 3.0000001,16 C 1,16 1,16 1,14.222222 L 1,1.7777778 C 1,0 1,0 3.0000001,0 z"/>
<g style="fill:#aaa;stroke:#aaa;stroke-linecap:round;stroke-width:2" transform="translate(-4 -5)">
<path d="m 15,35 0,3 3,0" transform="scale(.5)"/>
<path d="m 33,35 0,3 -3,0" transform="scale(.5)"/>
<path d="m 30,14 3,0 0,3" transform="scale(.5)"/>
<path d="m 15,17 0,-3 3,0" transform="scale(.5)"/>
</g>
</svg>

<svg width="16" xmlns="http://www.w3.org/2000/svg" height="16" viewBox="0 0 16 16" xmlns:xlink="http://www.w3.org/1999/xlink">
<g style="fill:#aaa">
<path d="M 3.449219 1.335938 C 3.207031 1.359375 3 1.589844 3 1.835938 L 3 14.167969 C 3 14.429688 3.238281 14.667969 3.503906 14.667969 L 12.496094 14.667969 C 12.761719 14.667969 13 14.429688 13 14.167969 L 13 2.671875 C 12.667969 2.332031 11.316406 1.664062 11 1.332031 L 3.503906 1.335938 C 3.484375 1.332031 3.46875 1.332031 3.449219 1.335938 Z M 4.007812 2.332031 L 10 2.332031 L 10 3.667969 L 12 3.667969 L 11.992188 13.667969 L 4.007812 13.667969 Z "/>
<g style="stroke:#aaa;stroke-linecap:round;stroke-width:2">
<path d="M 15 35.003906 L 15 38.003906 L 18 38.003906 " transform="scale(.33333)"/>
<path d="M 33 35.003906 L 33 38.003906 L 30 38.003906 " transform="scale(.33333)"/>
<path d="M 30 14.003906 L 33 14.003906 L 33 17.003906 " transform="scale(.33333)"/>
<path d="M 15 17.003906 L 15 14.003906 L 18 14.003906 " transform="scale(.33333)"/>
</g>
</g>
</svg>
